assets/flags-color/Gq.svg

<svg xmlns="http://www.w3.org/2000/svg" viewBox="0 0 512 512"><path fill="#73af00" d="M0 0h512v170.67H0z"/><path fill="#ff4b55" d="M0 341.33h512V512H0z"/><path fill="#f5f5f5" d="M0 170.67h512v170.67H0z"/><path fill="#4173cd" d="M138.987 244.276L0 0v512l138.987-244.276c3.911-6.874 3.911-16.574 0-23.448z"/><path fill="#b46446" d="M252.767 268.052c0 .33-.107 32.004-8.208 47.585h22.761c-8.101-15.581-8.208-47.256-8.208-47.585 0-10.914 11.311-19.586 11.425-19.672l-3.812-5.071c-.297.223-4.066 3.112-7.613 7.807v-8.442h-6.345v8.442c-3.548-4.695-7.317-7.584-7.613-7.807l-3.812 5.071c.114.086 11.425 8.758 11.425 19.672z"/><path fill="#73af00" d="M287.663 229.984c-.194 0-.373.051-.563.063-1.293-3.72-4.793-6.407-8.954-6.407-1.5 0-2.9.378-4.162.996-1.343-2.471-3.931-4.169-6.941-4.169-.865 0-1.683.173-2.463.429-1.687-3.981-5.631-6.774-10.227-6.774-5.648 0-10.261 4.234-10.961 9.691-.567-.089-1.136-.174-1.729-.174-6.132 0-11.103 4.971-11.103 11.103 0 .72.081 1.421.212 2.103a9.477 9.477 0 00-5.992 5.885c-.189-.017-.372-.057-.565-.057a6.345 6.345 0 100 12.69c1.619 0 3.08-.625 4.201-1.623a9.474 9.474 0 005.316 1.623c1.742 0 3.354-.502 4.759-1.32 1.405.817 3.016 1.32 4.759 1.32a9.517 9.517 0 009.517-9.517c0-.402-.07-.785-.118-1.174 1.478.728 3.118 1.174 4.877 1.174 2.206 0 4.25-.662 5.978-1.771 1.621 2.934 4.709 4.944 8.298 4.944.772 0 1.512-.117 2.23-.29 1.746 2.099 4.344 3.463 7.287 3.463 2.844 0 5.367-1.272 7.111-3.25 4.891-.397 8.751-4.446 8.751-9.44-.001-5.257-4.262-9.518-9.518-9.518z"/><path fill="#5fa000" d="M278.146 237.914c0-.33.069-.641.097-.964-1.697 1.57-3.948 2.55-6.442 2.55a9.5 9.5 0 01-7.931-4.268 9.5 9.5 0 01-7.931 4.268c-2.548 0-4.85-1.015-6.558-2.646-.988 5.12-5.482 8.99-10.89 8.99-.549 0-1.075-.085-1.602-.161.001.055.016.106.016.161 0 4.148-2.67 7.64-6.373 8.943a9.462 9.462 0 003.2.574c1.742 0 3.354-.502 4.759-1.32 1.405.817 3.016 1.32 4.759 1.32a9.517 9.517 0 009.517-9.517c0-.402-.07-.785-.118-1.174 1.478.728 3.118 1.174 4.877 1.174 2.206 0 4.25-.662 5.978-1.771 1.621 2.934 4.709 4.944 8.298 4.944.772 0 1.512-.117 2.23-.29 1.746 2.099 4.344 3.463 7.287 3.463 2.844 0 5.367-1.272 7.111-3.25l.02-.003c-5.753-.417-10.304-5.165-10.304-11.023z"/><path fill="#464655" d="M255.939 335.858c-.51 0-.962-.325-1.128-.805-.121-.356-3.107-8.708-14.734-8.708h-15.862c-9.402 0-17.051-7.649-17.051-17.051V204.605c0-.657.533-1.19 1.19-1.19h98.343c.657 0 1.19.533 1.19 1.19v104.688c0 9.402-7.649 17.051-17.051 17.051h-19.034c-11.697 0-14.705 8.616-14.733 8.702a1.187 1.187 0 01-1.126.812h-.004zm-46.396-130.064v103.498c0 8.089 6.582 14.672 14.672 14.672h15.862c9.416 0 13.974 5.056 15.862 8.095 1.888-3.039 6.445-8.095 15.862-8.095h19.034c8.09 0 14.672-6.583 14.672-14.672V205.794h-95.964z"/><g fill="#ffe15a"><path d="M243.765 176.318l3.013 4.826 5.687.197-2.673 5.023 2.673 5.023-5.687.197-3.013 4.825-3.014-4.825-5.686-.197 2.672-5.023-2.672-5.023 5.686-.197zM216.965 180.693l4.057 3.989 5.575-1.137-1.425 5.508 3.771 4.26-5.482 1.52-1.804 5.396-4.057-3.988-5.575 1.136 1.425-5.508-3.772-4.26 5.483-1.519zM191.251 188.304l4.823 3.018 5.198-2.313-.203 5.686 4.603 3.345-5.026 2.667-.596 5.659-4.823-3.019-5.198 2.314.203-5.686-4.603-3.345 5.026-2.668zM268.235 176.318l-3.013 4.826-5.687.197 2.673 5.023-2.673 5.023 5.687.197 3.013 4.825 3.014-4.825 5.686-.197-2.672-5.023 2.672-5.023-5.686-.197zM295.035 180.693l-4.057 3.989-5.575-1.137 1.425 5.508-3.772 4.26 5.483 1.52 1.804 5.396 4.057-3.988 5.575 1.136-1.425-5.508 3.772-4.26-5.483-1.519zM320.749 188.304l-4.823 3.018-5.198-2.313.203 5.686-4.603 3.345 5.026 2.667.596 5.659 4.823-3.019 5.198 2.314-.203-5.686 4.603-3.345-5.026-2.668z"/></g></svg>

<svg xmlns="http://www.w3.org/2000/svg" x="0" y="0" enable-background="new 0 0 512 512" version="1.1" viewBox="0 0 512 512" xml:space="preserve"><path fill="#73AF00" d="M0 0H512V170.67H0z"/><path fill="#FF4B55" d="M0 341.33H512V512H0z"/><path fill="#F5F5F5" d="M0 170.67H512V341.34H0z"/><path fill="#4173CD" d="M138.987 244.276 0 0v512l138.987-244.276c3.911-6.874 3.911-16.574 0-23.448z"/><path fill="#B46446" d="M252.767 268.052c0 .33-.107 32.004-8.208 47.585h22.761c-8.101-15.581-8.208-47.256-8.208-47.585 0-10.914 11.311-19.586 11.425-19.672l-3.812-5.071c-.297.223-4.066 3.112-7.613 7.807v-8.442h-6.345v8.442c-3.548-4.695-7.317-7.584-7.613-7.807l-3.812 5.071c.114.086 11.425 8.758 11.425 19.672z"/><path fill="#73AF00" d="M287.663 229.984c-.194 0-.373.051-.563.063-1.293-3.72-4.793-6.407-8.954-6.407-1.5 0-2.9.378-4.162.996-1.343-2.471-3.931-4.169-6.941-4.169-.865 0-1.683.173-2.463.429-1.687-3.981-5.631-6.774-10.227-6.774-5.648 0-10.261 4.234-10.961 9.691-.567-.089-1.136-.174-1.729-.174-6.132 0-11.103 4.971-11.103 11.103 0 .72.081 1.421.212 2.103a9.477 9.477 0 0 0-5.992 5.885c-.189-.017-.372-.057-.565-.057a6.345 6.345 0 1 0 0 12.69c1.619 0 3.08-.625 4.201-1.623a9.474 9.474 0 0 0 5.316 1.623c1.742 0 3.354-.502 4.759-1.32 1.405.817 3.016 1.32 4.759 1.32a9.517 9.517 0 0 0 9.517-9.517c0-.402-.07-.785-.118-1.174 1.478.728 3.118 1.174 4.877 1.174 2.206 0 4.25-.662 5.978-1.771 1.621 2.934 4.709 4.944 8.298 4.944.772 0 1.512-.117 2.23-.29 1.746 2.099 4.344 3.463 7.287 3.463 2.844 0 5.367-1.272 7.111-3.25 4.891-.397 8.751-4.446 8.751-9.44-.001-5.257-4.262-9.518-9.518-9.518z"/><path fill="#5FA000" d="M278.146 237.914c0-.33.069-.641.097-.964-1.697 1.57-3.948 2.55-6.442 2.55a9.5 9.5 0 0 1-7.931-4.268 9.5 9.5 0 0 1-7.931 4.268c-2.548 0-4.85-1.015-6.558-2.646-.988 5.12-5.482 8.99-10.89 8.99-.549 0-1.075-.085-1.602-.161.001.055.016.106.016.161 0 4.148-2.67 7.64-6.373 8.943a9.462 9.462 0 0 0 3.2.574c1.742 0 3.354-.502 4.759-1.32 1.405.817 3.016 1.32 4.759 1.32a9.517 9.517 0 0 0 9.517-9.517c0-.402-.07-.785-.118-1.174 1.478.728 3.118 1.174 4.877 1.174 2.206 0 4.25-.662 5.978-1.771 1.621 2.934 4.709 4.944 8.298 4.944.772 0 1.512-.117 2.23-.29 1.746 2.099 4.344 3.463 7.287 3.463 2.844 0 5.367-1.272 7.111-3.25l.02-.003c-5.753-.417-10.304-5.165-10.304-11.023z"/><path fill="#464655" d="M255.939 335.858c-.51 0-.962-.325-1.128-.805-.121-.356-3.107-8.708-14.734-8.708h-15.862c-9.402 0-17.051-7.649-17.051-17.051V204.605c0-.657.533-1.19 1.19-1.19h98.343c.657 0 1.19.533 1.19 1.19v104.688c0 9.402-7.649 17.051-17.051 17.051h-19.034c-11.697 0-14.705 8.616-14.733 8.702a1.187 1.187 0 0 1-1.126.812h-.004zm-46.396-130.064v103.498c0 8.089 6.582 14.672 14.672 14.672h15.862c9.416 0 13.974 5.056 15.862 8.095 1.888-3.039 6.445-8.095 15.862-8.095h19.034c8.09 0 14.672-6.583 14.672-14.672V205.794h-95.964z"/><g fill="#FFE15A"><path d="M243.765 176.318 246.778 181.144 252.465 181.341 249.792 186.364 252.465 191.387 246.778 191.584 243.765 196.409 240.751 191.584 235.065 191.387 237.737 186.364 235.065 181.341 240.751 181.144z"/><path d="M216.965 180.693 221.022 184.682 226.597 183.545 225.172 189.053 228.943 193.313 223.461 194.833 221.657 200.229 217.6 196.241 212.025 197.377 213.45 191.869 209.678 187.609 215.161 186.09z"/><path d="M191.251 188.304 196.074 191.322 201.272 189.009 201.069 194.695 205.672 198.04 200.646 200.707 200.05 206.366 195.227 203.347 190.029 205.661 190.232 199.975 185.629 196.63 190.655 193.962z"/><path d="M268.235 176.318 265.222 181.144 259.535 181.341 262.208 186.364 259.535 191.387 265.222 191.584 268.235 196.409 271.249 191.584 276.935 191.387 274.263 186.364 276.935 181.341 271.249 181.144z"/><path d="M295.035 180.693 290.978 184.682 285.403 183.545 286.828 189.053 283.056 193.313 288.539 194.833 290.343 200.229 294.4 196.241 299.975 197.377 298.55 191.869 302.322 187.609 296.839 186.09z"/><path d="M320.749 188.304 315.926 191.322 310.728 189.009 310.931 194.695 306.328 198.04 311.354 200.707 311.95 206.366 316.773 203.347 321.971 205.661 321.768 199.975 326.371 196.63 321.345 193.962z"/></g></svg>
